X:84
T:GELDHIM- Geld him Lasses, Geld him
S:Oswald's CPC, bk 6
Q:1/4=120
L:1/4
M:3/2
K:A mixolydian
d2A(B/c/)dD|FA2dcB|e2B(c/d/)eE|GB2dc(B/A/)|\
d3/2 e/ (d/e/f/g/) (a/g/f/e/)|df2agf|\
(e/f/)g (f/g/)a(g/a/)b|ge2B~c(B/A/):|\
FDADdD|FA2d~cB|eEGEeE|FB2dc(B/A/):|]

